X:1
T:MINUET 13th with Horn Acompanyments.
T:Minuet No. 13 
T:Ignatius Sancho (c. 1729–1780)
%%score { ( 1 2 ) | 3 }
L:1/8
M:3/4
K:Eb
V:1 treble nm="Piano" snm="Pno."
V:2 treble 
V:3 bass 
V:1
{A} G4 A2 | G2 e3 B | B2 B2 c2 | B2 e3 B | c2 c2 d2 | e2 B2 e2 | fg a2 g2 | f4 z2 |{A} G4 A2 | %9
 G2 e3 B | B2 B2 c2 | B2 e3 B | c2 c2 d2 | e2 B2 c2 | BA G2 F2 | [G,E]6 :: [Bg]2 Tb4 | [Bf]2 Tb4 | %18
 =ab c'a fe | Te2 d4 | db =ab d'2 | df =ef b2 |{a} (3(gfe) d2 c2 | B6 | B2 TB3 c | B2 b3 g | %26
 fg ag fe | d3 c B2 | B2 B3 c | B2 e3 B | (3(cB)A G2 F2 | E6 :| %32
V:2
 B,6 | B,2 x4 | G4 A2 | G2 x4 | E4 F2 | E4 x2 | B6 | B4 x2 | B,6 | x6 | G4 A2 | G2 x4 | E4 F2 | %13
 E6 | x6 | x6 :: E2 x4 | D2 x4 | x6 | x6 | x6 | x6 | x6 | x6 | E6 | E2 x4 | x6 | x6 | G4 A2 | %29
 G2 x4 | x6 | G,6 :| %32
V:3
 E,4 D,2 | E,2 z2 z2 | E,2 E,2 A,,2 | E,2 E,,2 z2 | A,,2 A,,2 A,,2 | G,,2 z2 G,,2 | B,,2 F,2 E,2 | %7
 B,,2 B,A, G,F, | E,4 D,2 | E,2 E,,2 z2 | E,2 E,2 A,,2 | E,4 z2 | A,,2 A,,2 A,,2 | G,,2 G,2 E,2 | %14
 G,A, B,2 B,,2 | E,2 B,,2 E,,2 :: E,G, B,G, F,E, | D,F, B,F, E,D, | C,2 F,2 =A,2 | %19
 B,2 B,,F, D,B,, | B,2 B,,2 F,2 | B,2 F,2 D,2 | E,2 F,2 F,,2 | B,,2 B,A, G,F, | E,2 G,2 B,2 | %25
 G,2 z2 E,2 | F,2 A,,2 =A,,2 | B,,2 C,2 D,2 | E,2 E,,2 A,,2 | E,2 G,,2 G,,2 | A,,2 B,,2 B,,2 | %31
 E,2 B,,2 E,,2 :| %32

